scripts/debs/qogir-icon-theme/usr/share/icons/Qogir/scalable/apps/matray.svg

<?xml version="1.0" encoding="UTF-8"?>
<svg width="64" height="64" version="1" xmlns="http://www.w3.org/2000/svg">
 <path d="m12.778 16c-1.5389 0-2.7778 1.2265-2.7778 2.75v32.599c0 1.5235 1.2389 2.6449 2.7778 2.651h25l5.5556 6 5.5556-6h8.3333c1.5389 0 2.7778-1.1275 2.7778-2.651v-32.599c0-1.5235-1.2389-2.75-2.7778-2.75z" fill="#35454c" stroke="#283134" stroke-width="2"/>
 <path d="m12.778 16c-1.5389 0-2.7778 1.2265-2.7778 2.75v32.599c0 1.5235 1.2389 2.6449 2.7778 2.651h25l5.5556 6 5.5556-6h8.3333c1.5389 0 2.7778-1.1275 2.7778-2.651v-32.599c0-1.5235-1.2389-2.75-2.7778-2.75z" fill="#35454c"/>
 <path d="m5.6696 4c-0.92494 0-1.6696 0.74461-1.6696 1.6695v30.661c0 0.92492 0.74463 1.6695 1.6696 1.6695h8.3304v-24h12v-9.9998zm22.33 0v34h8.3292c0.92494 0 1.6708-0.74461 1.6708-1.6695v-30.661c0-0.92492-0.74584-1.6695-1.6708-1.6695zm-12 12v22h10v-22z" fill="#16a085" stroke="#177864" stroke-width="2"/>
 <path d="m5.6696 4c-0.92494 0-1.6696 0.74461-1.6696 1.6695v30.661c0 0.92492 0.74463 1.6695 1.6696 1.6695h8.3304v-24h12v-9.9998zm22.33 0v34h8.3292c0.92494 0 1.6708-0.74461 1.6708-1.6695v-30.661c0-0.92492-0.74584-1.6695-1.6708-1.6695zm-12 12v22h10v-22z" fill="#16a085" stroke-width=".99999"/>
</svg>

<svg xmlns="http://www.w3.org/2000/svg" width="64" height="64" version="1"><path fill="#35454c" stroke="#283134" stroke-width="2" d="M12.778 16C11.239 16 10 17.226 10 18.75v32.599c0 1.524 1.24 2.645 2.778 2.651h25l5.556 6 5.555-6h8.333C58.762 54 60 52.873 60 51.349V18.75c0-1.523-1.239-2.75-2.778-2.75z"/><path fill="#35454c" d="M12.778 16C11.239 16 10 17.226 10 18.75v32.599c0 1.524 1.24 2.645 2.778 2.651h25l5.556 6 5.555-6h8.333C58.762 54 60 52.873 60 51.349V18.75c0-1.523-1.239-2.75-2.778-2.75z"/><path fill="#16a085" stroke="#177864" stroke-width="2" d="M5.67 4C4.745 4 4 4.745 4 5.67v30.66c0 .925.745 1.67 1.67 1.67H14V14h12V4zM28 4v34h8.329c.925 0 1.67-.745 1.67-1.67V5.67A1.664 1.664 0 0 0 36.33 4zM16 16v22h10V16z"/><path fill="#16a085" d="M5.67 4C4.745 4 4 4.745 4 5.67v30.66c0 .925.745 1.67 1.67 1.67H14V14h12V4zM28 4v34h8.329c.925 0 1.67-.745 1.67-1.67V5.67A1.664 1.664 0 0 0 36.33 4zM16 16v22h10V16z"/></svg>
